X:1731
T:Spellan The Fiddler
M:C|
L:1/8
N:"collected by J. O'Neill"
B:O'Neill's 1731
R:Hornpipe
Z:"Transcribed by Bob Safranek, rjs@gsp.org"
K:G
((3DEF)| G>DB>G d>Bg>d | b>g (3ded c>BA>G | .F(d^cd) .A(dcd) | d>ce>d c>AF>D   |
         G>DB>G d>Bg>d | b>g (3ded c>BA>G |  f>ec>A   e>dB>G | (3FGA (2DEF G2 :|
|: g2  | b>gd>B G>Bd>g |  a>fc>A   F>Ac>f |  a>gb>a  c'>ba>g | f>ed>c B>AG>F   |
         G>Dc>G d>Bg>d | b>g (3ded c>BA>G |  f>ec>A   e>dB>G | (3FGA (3DEF G2 :|


